modules/open-iconic/icons/bold.svg

<svg xmlns="http://www.w3.org/2000/svg" width="8" height="8" viewBox="0 0 8 8">
  <path d="M0 0v1c.55 0 1 .45 1 1v4c0 .55-.45 1-1 1v1h5.5c1.38 0 2.5-1.12 2.5-2.5 0-1-.59-1.85-1.44-2.25.27-.34.44-.78.44-1.25 0-1.1-.89-2-2-2h-5zm3 1h1c.55 0 1 .45 1 1s-.45 1-1 1h-1v-2zm0 3h1.5c.83 0 1.5.67 1.5 1.5s-.67 1.5-1.5 1.5h-1.5v-3z" />
</svg>

<svg xmlns="http://www.w3.org/2000/svg" width="8" height="8" viewBox="0 0 8 8"><path d="M0 0v1c.55 0 1 .45 1 1v4c0 .55-.45 1-1 1v1h5.5A2.5 2.5 0 0 0 8 5.5c0-1-.59-1.85-1.44-2.25A2 2 0 0 0 5 0H0zm3 1h1c.55 0 1 .45 1 1s-.45 1-1 1H3V1zm0 3h1.5C5.33 4 6 4.67 6 5.5S5.33 7 4.5 7H3V4z"/></svg>
